X: 566
T: Dong bing
%%abc-version 2.0
%%abcx-abcm2ps-target-version 5.9.1 (29 Sep 2008)
%%abc-creator hum2abc beta
%%abcx-conversion-date 2013/10/02 07:52:30
%%abc-edited-by Helmut Schaffrath
%%humdrum-veritas 3917146899
%%humdrum-veritas-data 2108705528
%%continueall 1
%%barnumbers 0
L: 1/8
M: 2/4
K: G
B d e e [I:setbarnb 1]| 
g ed2 | 
B d e e | 
d4 | 
B d e e | 
g e d d | 
g e d B | 
A2d2 | 
AG2E | 
E2z2 | 
d B A d | 
G2z2 | 
d B A d | 
G2d2 | 
A A A E | 
D4 |]  



